X: 181
T: Mrs Monro Binning's Favorite
R: jig
Q: "Slow"
B: William Shepherd "2nd Collection" 1800 p.18 #1
F: http://imslp.org/wiki/File:PMLP73094-Shepherd_Collections_HMT.pdf
C: William Shepherd (17??-1812)
Z: 2012 John Chambers <jc:trillian.mit.edu>
M: 6/8
L: 1/8
K: Eb
B, |\
TE2E TE>GB | A>FE D>CB, | TE2E E>GB | Tc>de B>GE |\
c>AF B>GE | TF>GE D>CB, | A>cA TF>GA | B,>FD TE2 :|
|: B |\
e2e e>de | c>fe d>c=B | Tc>=Bc d>ec | G>c=B c2d |\
e>de B>GE | TF>GE D>CB, | A>cA TF>GA | B,>CD TE2 :|
